X: 11566
T: Edinburgh Rock, The
R: reel
M: 4/4
K: Eminor
K: Emin
|:GEEE DEAE|GEEE A/B/d BA|GEEE DEGA|BAAG AGGE|
GEEE DEAE|GEEE A/B/d BA|GAAG ABdB|DEGA BAAG:|
|:geed BAGE|deee geae|geed BAGE|DEEE GE A/B/d|
geed BBBA|GEGA _BAGA|Bd d/d/d BAGA|Bdgd eee z:|

